X: 14566
T: Gan Ainm
R: reel
M: 4/4
K: Dmixolydian
~A3 G AddB|cABG EFGE|~A3 G AddB|cAGE FDDG:|
Addc dcAG|Bdef gedB|Addc dcAB|cAGE FDDG|
Addc dcAG|Bdef ~g2 ag|fdec d2 ed|cAGE FDD||

